X:419
T:Midwinter Waltz, A
C:Dave Richardson
D:Boys of the Lough, The Day Dawn
Z:Nigel Gatherer
M:3/4
L:1/8
K:G
GA  | B3 c d2 | d3 B A2 | A3 B A2 | G4   EG |
      A3 B A2 | A3 B A2 | G3 ABc  | A4   GA |
      B3 c d2 | d3 B A2 | A3 B A2 | G4   EG |
      A3 B A2 | A3 B A2 | G3 A G2 | G4     :|
AB  | c3 B c2 | c3 B c2 | e3 d e2 | A3 B c2 |
      d3 e d2 | B3 A G2 | A3 B G2 | A4   
1AB | c3 B c2 | c3 B c2 | e3 d e2 | A3 B c2 |
      d3 e d2 | B3 A G2 | A3 B A2 | G4     :|
2GA | B3 c d2 | d3 B A2 | A3 B A2 | G4   EG |
      A3 B A2 | A3 B A2 | G3 A G2 | G4     |]
<end>
<start>
